src/images/dist/icons/stage-icon-2.svg

<svg width="36" height="25" viewBox="0 0 36 25" fill="none" xmlns="http://www.w3.org/2000/svg">
<path d="M22.6484 13.6438H33.2675M24.7959 11.0197V7.5083H27.864L29.1647 11.0197H24.7959Z" stroke="#211E1E"/>
<path d="M22.6333 4.30334H27.064C28.7103 4.30791 30.183 5.3391 30.7661 6.8956L33.2641 13.6372L34.8071 14.677C34.9642 14.7829 35.0584 14.9612 35.0584 15.152V20.8618C35.0584 21.1772 34.8055 21.4328 34.4936 21.4328H29.919M22.6333 4.30334V1.44842C22.6333 1.1331 22.3805 0.877441 22.0686 0.877441H1.73665C1.42475 0.877441 1.17188 1.1331 1.17188 1.44842V20.8618C1.17188 21.1772 1.42475 21.4328 1.73665 21.4328H5.74656M22.6333 4.30334H1.17188M22.6333 4.30334V21.4328M5.74656 21.4328C6.0569 22.978 7.54748 23.9763 9.07591 23.6625C10.1872 23.4344 11.0557 22.5563 11.2814 21.4328M5.74656 21.4328C5.60827 20.1805 6.01278 19.4851 6.26954 19.1489C6.33981 19.0714 6.95964 18.0069 8.51396 18.0069C9.85537 18.0086 11.0112 18.9625 11.2814 20.2909C11.3375 20.5113 11.3048 21.144 11.2814 21.4328M11.2814 21.4328H24.3841M24.3841 21.4328C24.6945 22.978 26.1851 23.9763 27.7135 23.6625C28.8248 23.4344 29.6933 22.5563 29.919 21.4328M24.3841 21.4328C24.2959 21.1132 24.3474 20.5383 24.3841 20.2909C24.6543 18.9625 25.8101 18.0086 27.1516 18.0069C28.0753 18.0069 29.0129 18.6466 29.3965 19.1489C29.6533 19.4851 29.8318 19.8754 29.919 20.2909C29.9756 20.4873 30.055 20.9907 29.919 21.4328" stroke="#211E1E"/>
<path d="M22.6248 18.8591H10.5898" stroke="#211E1E"/>
<path d="M6.4578 18.8591H1.17188" stroke="#211E1E"/>
</svg>

<svg width="36" height="25" fill="none" xmlns="http://www.w3.org/2000/svg"><path d="M22.648 13.644h10.62m-8.472-2.624V7.508h3.068l1.3 3.512h-4.368z" stroke="#211E1E"/><path d="M22.633 4.303h4.431a3.972 3.972 0 013.702 2.593l2.498 6.741 1.543 1.04a.573.573 0 01.251.475v5.71a.568.568 0 01-.564.57h-4.575M22.633 4.304V1.448a.568.568 0 00-.564-.57H1.737a.568.568 0 00-.565.57v19.414c0 .315.253.57.565.57h4.01M22.633 4.304H1.172m21.461 0v17.13m-16.886 0c.31 1.545 1.8 2.543 3.329 2.23a2.84 2.84 0 002.205-2.23m-5.534 0c-.139-1.253.266-1.948.523-2.284.07-.078.69-1.142 2.244-1.142a2.837 2.837 0 012.767 2.284c.056.22.024.853 0 1.142m0 0h13.103m0 0c.31 1.545 1.801 2.543 3.33 2.23a2.84 2.84 0 002.205-2.23m-5.535 0c-.088-.32-.037-.895 0-1.142a2.837 2.837 0 012.768-2.284c.923 0 1.86.64 2.244 1.142.257.336.436.726.523 1.142.057.196.136.7 0 1.142m-7.294-2.574H10.59m-4.132 0H1.172" stroke="#211E1E"/></svg>
